symbols-de/shields/motorway_7x2_z16.svg

<?xml version="1.0" encoding="UTF-8" standalone="no"?>
<svg
   xmlns:dc="http://purl.org/dc/elements/1.1/"
   xmlns:cc="http://creativecommons.org/ns#"
   xmlns:rdf="http://www.w3.org/1999/02/22-rdf-syntax-ns#"
   xmlns:svg="http://www.w3.org/2000/svg"
   xmlns="http://www.w3.org/2000/svg"
   xmlns:sodipodi="http://sodipodi.sourceforge.net/DTD/sodipodi-0.dtd"
   xmlns:inkscape="http://www.inkscape.org/namespaces/inkscape"
   width="100%"
   height="100%"
   viewBox="0 0 55.0 26.0"
   id="svg2"
   version="1.1"
   inkscape:version="0.91 r13725"
   sodipodi:docname="autobahn_7x2_z16.svg">
  <metadata
     id="metadata9">
    <rdf:RDF>
      <cc:Work
         rdf:about="">
        <dc:format>image/svg+xml</dc:format>
        <dc:type
           rdf:resource="http://purl.org/dc/dcmitype/StillImage" />
        <dc:title></dc:title>
      </cc:Work>
    </rdf:RDF>
  </metadata>
  <defs
     id="defs7" />
  <sodipodi:namedview
     pagecolor="#ffffff"
     bordercolor="#666666"
     borderopacity="1"
     objecttolerance="10"
     gridtolerance="10"
     guidetolerance="10"
     inkscape:pageopacity="0"
     inkscape:pageshadow="2"
     inkscape:window-width="1112"
     inkscape:window-height="707"
     id="namedview5"
     showgrid="false"
     inkscape:zoom="6.4181818"
     inkscape:cx="27.5"
     inkscape:cy="13"
     inkscape:window-x="216"
     inkscape:window-y="179"
     inkscape:window-maximized="0"
     inkscape:current-layer="svg2" />
  <path
     style="fill:#365eaf;fill-opacity:1;stroke:#0528a2;stroke-width:1;stroke-miterlimit:4;stroke-dasharray:none;stroke-opacity:1"
     d="m 27.500001,0.5000008 c -0.387095,0 -0.580079,0.00359 -0.580079,0.012739 L 1.3721455,2.436143 C 0.7914993,2.528373 0.5,2.667788 0.5,2.852243 c 0,6.765172 0,13.530344 0,20.295515 0,0.184457 0.2914989,0.323875 0.8721455,0.4161 L 26.919922,25.48726 c 0,0.0092 0.192988,0.01274 0.580079,0.01274 0.387097,0 0.580078,-0.0036 0.580078,-0.01274 l 25.547778,-1.923403 c 0.580646,-0.09223 0.872145,-0.231645 0.872145,-0.4161 0,-6.765172 0,-13.530343 0,-20.295515 0,-0.184456 -0.291499,-0.323875 -0.872145,-0.4161 L 28.080079,0.5127388 c 0,-0.00924 -0.192988,-0.012739 -0.580078,-0.012739 z"
     id="path6"
     inkscape:connector-curvature="0"
     sodipodi:nodetypes="sccccccsccccccs" />
</svg>

<?xml version="1.0" encoding="UTF-8"?>
<svg xmlns="http://www.w3.org/2000/svg" xmlns:xlink="http://www.w3.org/1999/xlink" width="52pt" height="34pt" viewBox="0 0 52 34" version="1.1">
<g id="surface1">
<path style="fill-rule:nonzero;fill:rgb(21.176471%,36.862745%,68.627451%);fill-opacity:1;stroke-width:1;stroke-linecap:butt;stroke-linejoin:miter;stroke:rgb(1.960784%,15.686275%,63.529412%);stroke-opacity:1;stroke-miterlimit:4;" d="M 27.5 0.498851 C 27.111629 0.498851 26.921575 0.504825 26.921575 0.513787 L 1.371695 2.4375 C 0.793269 2.527114 0.499925 2.667509 0.499925 2.852711 C 0.499925 9.618566 0.499925 16.381434 0.499925 23.147289 C 0.499925 23.332491 0.793269 23.472886 1.371695 23.5625 L 26.921575 25.486213 C 26.921575 25.495175 27.111629 25.501149 27.5 25.501149 C 27.888371 25.501149 28.078425 25.495175 28.078425 25.486213 L 53.628305 23.5625 C 54.206731 23.472886 54.500075 23.332491 54.500075 23.147289 C 54.500075 16.381434 54.500075 9.618566 54.500075 2.852711 C 54.500075 2.667509 54.206731 2.527114 53.628305 2.4375 L 28.078425 0.513787 C 28.078425 0.504825 27.888371 0.498851 27.5 0.498851 Z M 27.5 0.498851 " transform="matrix(0.945455,0,0,1.307692,0,0)"/>
</g>
</svg>
